tellnet/images/service-images/power-supply-img.svg

<svg width="80" height="80" viewBox="0 0 80 80" fill="none" xmlns="http://www.w3.org/2000/svg">
<path d="M79.9994 41.9913C79.575 50.5007 76.443 58.6523 71.0596 65.2587C65.6763 71.865 58.3229 76.581 50.0706 78.7195C41.8184 80.858 33.0985 80.3073 25.1813 77.1477C17.2641 73.988 10.5632 68.3845 6.05476 61.1534C1.54636 53.9224 -0.533965 45.4416 0.116823 36.9465C0.767611 28.4514 4.11552 20.386 9.67283 13.9251C15.2301 7.46419 22.7065 2.94544 31.0127 1.02712C39.319 -0.891197 48.0211 -0.108856 55.8514 3.26018C55.9607 3.30765 56.0467 3.39649 56.0905 3.50721C56.1343 3.61793 56.1325 3.74149 56.0853 3.85084C56.0381 3.96018 55.9495 4.04637 55.8388 4.09052C55.7282 4.13467 55.6045 4.13318 55.495 4.08636C47.8324 0.78249 39.3142 0.0108968 31.182 1.88406C23.0499 3.75722 15.729 8.17721 10.2864 14.4997C4.84386 20.8223 1.5642 28.7168 0.925504 37.0325C0.286813 45.3483 2.32248 53.6506 6.73576 60.7292C11.149 67.8077 17.7092 73.2925 25.4601 76.3841C33.2109 79.4757 41.7471 80.0123 49.8245 77.9159C57.9019 75.8194 65.0982 71.1995 70.3643 64.7294C75.6304 58.2594 78.6911 50.2775 79.1002 41.9473C79.1029 41.8882 79.1172 41.8302 79.1424 41.7766C79.1676 41.723 79.2031 41.6749 79.2469 41.635C79.2907 41.5952 79.342 41.5644 79.3978 41.5443C79.4535 41.5243 79.5127 41.5155 79.5719 41.5184C79.631 41.5213 79.689 41.5359 79.7426 41.5612C79.7961 41.5866 79.8441 41.6222 79.8839 41.6661C79.9236 41.7101 79.9542 41.7614 79.974 41.8172C79.9939 41.873 80.0025 41.9322 79.9994 41.9913Z" fill="white"/>
<path d="M77.6902 41.9967C77.2947 49.5515 74.625 56.8108 70.031 62.8235C65.437 68.8362 59.1329 73.3219 51.9445 75.693C51.8882 75.7115 51.8289 75.7188 51.7698 75.7144C51.7107 75.71 51.653 75.6939 51.6002 75.6672C51.5473 75.6404 51.5002 75.6035 51.4617 75.5585C51.4231 75.5135 51.3938 75.4614 51.3755 75.4051C51.3572 75.3488 51.3501 75.2894 51.3548 75.2304C51.3595 75.1714 51.3757 75.1138 51.4027 75.0611C51.4297 75.0084 51.4668 74.9615 51.512 74.9231C51.5571 74.8848 51.6094 74.8557 51.6658 74.8376C57.9878 72.7808 63.6269 69.0358 67.9731 64.0075C72.3193 58.9793 75.2073 52.8592 76.3246 46.3092C77.442 39.7592 76.7462 33.0285 74.3126 26.8451C71.879 20.6617 67.8001 15.261 62.5171 11.2269C57.2341 7.19285 50.948 4.67905 44.3388 3.95736C37.7295 3.23566 31.0486 4.33355 25.0186 7.13229C18.9885 9.93103 13.8389 14.3241 10.1266 19.8364C6.41429 25.3487 4.28061 31.7704 3.9563 38.407C3.95009 38.5259 3.89699 38.6375 3.80862 38.7173C3.72026 38.7971 3.60384 38.8387 3.48487 38.8329C3.3659 38.8271 3.25407 38.7744 3.17389 38.6864C3.09371 38.5983 3.05171 38.4821 3.0571 38.3632C3.53923 28.4723 7.93316 19.1779 15.2723 12.5247C18.9063 9.23036 23.1539 6.68361 27.7727 5.02984C32.3915 3.37608 37.291 2.64769 42.1915 2.88627C47.092 3.12485 51.8975 4.32571 56.3336 6.42031C60.7696 8.51491 64.7495 11.4622 68.0459 15.094C71.3422 18.7257 73.8905 22.9708 75.5453 27.5867C77.2001 32.2027 77.9289 37.0992 77.6902 41.9967Z" fill="white"/>
<path d="M38.8186 58.7611H25.3146C24.7179 58.7604 24.1459 58.5232 23.7239 58.1015C23.302 57.6798 23.0647 57.1081 23.064 56.5118V43.9158C23.0647 43.3195 23.302 42.7478 23.724 42.3261C24.1459 41.9044 24.7179 41.6672 25.3146 41.6665H38.8186C39.4153 41.6672 39.9874 41.9044 40.4093 42.3261C40.8312 42.7477 41.0686 43.3195 41.0693 43.9158V56.5118C41.0686 57.1081 40.8312 57.6798 40.4093 58.1015C39.9874 58.5232 39.4153 58.7604 38.8186 58.7611ZM25.3146 42.5662C24.9566 42.5666 24.6133 42.7089 24.3602 42.9619C24.107 43.2149 23.9646 43.558 23.9642 43.9158V56.5118C23.9646 56.8696 24.107 57.2126 24.3602 57.4657C24.6133 57.7187 24.9566 57.861 25.3146 57.8614H38.8186C39.1766 57.861 39.5199 57.7187 39.7731 57.4657C40.0262 57.2126 40.1686 56.8696 40.169 56.5118V43.9158C40.1686 43.558 40.0262 43.2149 39.7731 42.9619C39.5199 42.7089 39.1766 42.5666 38.8186 42.5662H25.3146Z" fill="white"/>
<path d="M28.916 41.6659H28.9116C28.7924 41.6648 28.6785 41.6165 28.595 41.5316C28.5114 41.4466 28.4649 41.332 28.4658 41.2129C28.5913 38.7872 29.6153 36.4948 31.3385 34.7818C33.4819 32.6999 36.6069 31.693 40.6287 31.7695C52.9545 32.0388 53.3322 25.6612 53.6174 20.5481C53.6355 20.2203 53.6535 19.9014 53.6742 19.593C53.6776 19.5336 53.6928 19.4755 53.7188 19.4221C53.7448 19.3686 53.7812 19.3208 53.8258 19.2815C53.8704 19.2421 53.9224 19.212 53.9788 19.1929C54.0351 19.1738 54.0947 19.166 54.154 19.17C54.2134 19.174 54.2714 19.1897 54.3246 19.2162C54.3779 19.2428 54.4253 19.2796 54.4642 19.3246C54.5032 19.3695 54.5328 19.4218 54.5514 19.4783C54.57 19.5347 54.5772 19.5943 54.5726 19.6536C54.552 19.9585 54.5344 20.2744 54.5164 20.5981C54.2416 25.5136 53.8179 32.9477 40.6101 32.6692C36.8425 32.5905 33.9395 33.5166 31.9759 35.418C30.43 36.9716 29.5025 39.0341 29.3661 41.2209C29.3647 41.3393 29.3168 41.4525 29.2325 41.5358C29.1482 41.6191 29.0345 41.6658 28.916 41.6659Z" fill="white"/>
<path d="M39.719 55.1624H24.4145C24.2951 55.1624 24.1806 55.115 24.0962 55.0306C24.0118 54.9463 23.9644 54.8319 23.9644 54.7126C23.9644 54.5932 24.0118 54.4788 24.0962 54.3944C24.1806 54.3101 24.2951 54.2627 24.4145 54.2627H39.719C39.8384 54.2627 39.9529 54.3101 40.0373 54.3944C40.1217 54.4788 40.1691 54.5932 40.1691 54.7126C40.1691 54.8319 40.1217 54.9463 40.0373 55.0306C39.9529 55.115 39.8384 55.1624 39.719 55.1624Z" fill="white"/>
</svg>

<?xml version="1.0" encoding="UTF-8" standalone="no"?>
<svg width="80" xmlns="http://www.w3.org/2000/svg" viewBox="0 0 80 80" height="80">
 <path d="m79.999 41.991c-0.424 8.51-3.556 16.661-8.939 23.268-5.384 6.606-12.737 11.322-20.989 13.461-8.253 2.138-16.973 1.587-24.89-1.572-7.917-3.16-14.618-8.764-19.126-15.995-4.5086-7.231-6.589-15.711-5.9382-24.207 0.65081-8.495 3.9987-16.56 9.556-23.021 5.5572-6.4608 13.033-10.98 21.34-12.898 8.306-1.9182 17.008-1.1359 24.838 2.2332 0.11 0.0474 0.196 0.1363 0.239 0.247 0.044 0.1107 0.042 0.2343-0.005 0.3436-0.047 0.1094-0.135 0.1956-0.246 0.2397-0.111 0.0442-0.235 0.0427-0.344-0.0041-7.663-3.3039-16.181-4.0755-24.313-2.2023-8.132 1.8731-15.453 6.2931-20.896 12.616-5.4421 6.322-8.7218 14.217-9.3605 22.532-0.63869 8.316 1.397 16.619 5.8103 23.697 4.4132 7.079 10.973 12.563 18.724 15.655s16.287 3.628 24.364 1.532c8.078-2.097 15.274-6.716 20.54-13.187 5.266-6.47 8.327-14.451 8.736-22.782 0.003-0.059 0.017-0.117 0.042-0.17 0.026-0.054 0.061-0.102 0.105-0.142s0.095-0.071 0.151-0.091 0.115-0.028 0.174-0.026c0.059 0.003 0.117 0.018 0.171 0.043 0.053 0.026 0.101 0.061 0.141 0.105s0.07 0.095 0.09 0.151 0.028 0.115 0.025 0.174z" fill="#fff"/>
 <path d="m77.69 41.997c-0.395 7.555-3.065 14.814-7.659 20.827-4.594 6.012-10.898 10.498-18.087 12.869-0.056 0.019-0.115 0.026-0.174 0.021-0.059-0.004-0.117-0.02-0.17-0.047s-0.1-0.063-0.138-0.109c-0.039-0.044-0.068-0.097-0.086-0.153-0.019-0.056-0.026-0.116-0.021-0.175s0.021-0.116 0.048-0.169 0.064-0.099 0.109-0.138c0.045-0.038 0.097-0.067 0.154-0.085 6.322-2.057 11.961-5.802 16.307-10.83 4.346-5.029 7.234-11.149 8.352-17.699 1.117-6.55 0.421-13.281-2.012-19.464-2.434-6.183-6.513-11.584-11.796-15.618-5.283-4.0342-11.569-6.548-18.178-7.2696-6.609-0.7217-13.29 0.3762-19.32 3.1749-6.031 2.7987-11.18 7.1917-14.892 12.704-3.7127 5.513-5.8464 11.934-6.1707 18.571-0.0062 0.119-0.0593 0.231-0.1477 0.31-0.0883 0.08-0.2048 0.122-0.3237 0.116-0.119-0.006-0.2308-0.059-0.311-0.147s-0.1222-0.204-0.1168-0.323c0.4821-9.891 4.8761-19.185 12.215-25.838 3.634-3.2946 7.882-5.8414 12.501-7.4952 4.619-1.6537 9.518-2.3821 14.419-2.1435 4.9 0.2385 9.706 1.4394 14.142 3.534s8.416 5.0417 11.712 8.6737 5.844 7.877 7.499 12.493 2.384 9.512 2.145 14.41z" fill="#fff"/>
 <path d="m38.819 58.761h-13.504c-0.597-0.001-1.169-0.238-1.591-0.659-0.422-0.422-0.659-0.994-0.66-1.59v-12.596c0.001-0.596 0.238-1.168 0.66-1.59s0.994-0.659 1.591-0.66h13.504c0.596 0.001 1.168 0.238 1.59 0.66s0.66 0.994 0.66 1.59v12.596c0 0.596-0.238 1.168-0.66 1.59-0.422 0.421-0.994 0.658-1.59 0.659zm-13.504-16.195c-0.358 0.001-0.702 0.143-0.955 0.396s-0.395 0.596-0.396 0.954v12.596c0.001 0.358 0.143 0.701 0.396 0.954s0.597 0.395 0.955 0.395h13.504c0.358 0 0.701-0.142 0.954-0.395s0.396-0.596 0.396-0.954v-12.596c0-0.358-0.143-0.701-0.396-0.954s-0.596-0.395-0.954-0.396h-13.504z" fill="#fff"/>
 <path d="m28.916 41.666h-0.004c-0.12-0.001-0.234-0.05-0.317-0.134-0.084-0.085-0.13-0.2-0.129-0.319 0.125-2.426 1.149-4.718 2.872-6.431 2.144-2.082 5.269-3.089 9.291-3.012 12.325 0.269 12.703-6.109 12.988-11.222 0.019-0.328 0.037-0.647 0.057-0.955 0.004-0.059 0.019-0.117 0.045-0.171 0.026-0.053 0.062-0.101 0.107-0.14 0.044-0.04 0.096-0.07 0.153-0.089 0.056-0.019 0.116-0.027 0.175-0.023s0.117 0.02 0.171 0.046c0.053 0.027 0.1 0.064 0.139 0.109s0.069 0.097 0.087 0.153c0.019 0.057 0.026 0.116 0.022 0.176-0.021 0.304-0.039 0.62-0.057 0.944-0.274 4.916-0.698 12.35-13.906 12.071-3.768-0.079-6.67 0.848-8.634 2.749-1.546 1.554-2.474 3.616-2.61 5.803-0.001 0.118-0.049 0.231-0.134 0.315-0.084 0.083-0.198 0.13-0.316 0.13z" fill="#fff"/>
 <path d="m39.719 55.162h-15.305c-0.119 0-0.233-0.047-0.318-0.131-0.084-0.085-0.132-0.199-0.132-0.318 0-0.12 0.048-0.234 0.132-0.319 0.085-0.084 0.199-0.131 0.318-0.131h15.305c0.119 0 0.234 0.047 0.318 0.131 0.085 0.085 0.132 0.199 0.132 0.319 0 0.119-0.047 0.233-0.132 0.318-0.084 0.084-0.199 0.131-0.318 0.131z" fill="#fff"/>
</svg>
